svgs/thin/square-x.svg

<svg xmlns="http://www.w3.org/2000/svg" viewBox="0 0 448 512"><!--! Font Awesome Pro 6.3.0 by @fontawesome - https://fontawesome.com License - https://fontawesome.com/license (Commercial License) Copyright 2023 Fonticons, Inc. --><path d="M384 32H64C28.65 32 0 60.65 0 96v320c0 35.35 28.65 64 64 64h320c35.35 0 64-28.65 64-64V96C448 60.65 419.3 32 384 32zM432 416c0 26.47-21.53 48-48 48H64c-26.47 0-48-21.53-48-48V96c0-26.47 21.53-48 48-48h320c26.47 0 48 21.53 48 48V416zM333.2 129.1c-3.328-2.906-8.391-2.547-11.28 .8125L224 243.8L126 130.8c-2.891-3.359-7.953-3.719-11.28-.8125c-3.344 2.891-3.703 7.953-.8125 11.28L213.4 256l-99.46 114.8c-2.891 3.328-2.531 8.391 .8125 11.28C116.3 383.4 118.1 384 120 384c2.234 0 4.469-.9375 6.047-2.766L224 268.2l97.95 113C323.5 383.1 325.8 384 328 384c1.859 0 3.719-.6406 5.234-1.953c3.344-2.891 3.703-7.953 .8125-11.28L234.6 256l99.46-114.8C336.9 137.9 336.6 132.8 333.2 129.1z"/></svg>

<svg xmlns="http://www.w3.org/2000/svg" viewBox="0 0 448 512"><!-- Font Awesome Pro 6.0.0-alpha2 by @fontawesome - https://fontawesome.com License - https://fontawesome.com/license (Commercial License) --><path d="M384 32H64C28.654 32 0 60.654 0 96V416C0 451.346 28.654 480 64 480H384C419.346 480 448 451.346 448 416V96C448 60.654 419.346 32 384 32ZM432 416C432 442.467 410.467 464 384 464H64C37.533 464 16 442.467 16 416V96C16 69.533 37.533 48 64 48H384C410.467 48 432 69.533 432 96V416ZM333.234 129.953C329.906 127.047 324.844 127.406 321.953 130.766L224 243.789L126.047 130.766C123.156 127.406 118.094 127.047 114.766 129.953C111.422 132.844 111.062 137.906 113.953 141.234L213.416 256L113.953 370.766C111.063 374.094 111.422 379.156 114.766 382.047C116.281 383.359 118.141 384 120 384C122.234 384 124.469 383.062 126.047 381.234L224 268.211L321.953 381.234C323.531 383.062 325.766 384 328 384C329.859 384 331.719 383.359 333.234 382.047C336.578 379.156 336.938 374.094 334.047 370.766L234.584 256L334.047 141.234C336.938 137.906 336.578 132.844 333.234 129.953Z"/></svg>
